src/assets/outline/Airdrop.svg

<svg width="24" height="24" viewBox="0 0 24 24"  xmlns="http://www.w3.org/2000/svg">
<path d="M11.9999 13.7397C11.2199 13.7397 10.4799 13.4398 9.90995 12.8798C9.17995 12.1498 8.88995 11.0998 9.12995 10.0698C9.37995 9.01976 10.2199 8.17975 11.2699 7.92975C12.2899 7.67975 13.3399 7.96978 14.0799 8.70978C14.8199 9.44978 15.0999 10.4898 14.8599 11.5198C14.6099 12.5698 13.7699 13.4097 12.7199 13.6597C12.4799 13.7097 12.2399 13.7397 11.9999 13.7397ZM11.9999 9.33978C11.8799 9.33978 11.7499 9.35977 11.6299 9.38977C11.1299 9.50977 10.72 9.91974 10.6 10.4197C10.47 10.9397 10.6099 11.4498 10.9799 11.8098C11.3499 12.1798 11.8499 12.3098 12.3799 12.1898C12.8799 12.0698 13.2899 11.6597 13.4099 11.1597C13.5399 10.6397 13.3999 10.1298 13.0299 9.76978C12.7499 9.48978 12.3899 9.33978 11.9999 9.33978Z" />
<path d="M6.01996 17.97C5.83996 17.97 5.64995 17.9 5.50995 17.77C3.56995 15.97 2.45996 13.43 2.45996 10.79C2.45996 5.52998 6.73995 1.25 12 1.25C17.26 1.25 21.5399 5.52998 21.5399 10.79C21.5399 13.45 20.47 15.91 18.53 17.74C18.23 18.02 17.75 18.01 17.47 17.71C17.19 17.41 17.2 16.93 17.5 16.65C19.14 15.11 20.0399 13.04 20.0399 10.8C20.0399 6.36999 16.43 2.76001 12 2.76001C7.56995 2.76001 3.95996 6.36999 3.95996 10.8C3.95996 13.06 4.86995 15.14 6.52995 16.68C6.82995 16.96 6.84996 17.44 6.56996 17.74C6.41996 17.89 6.21996 17.97 6.01996 17.97Z" />
<path d="M16 15.3005C15.82 15.3005 15.63 15.2305 15.49 15.1005C15.19 14.8205 15.17 14.3405 15.46 14.0405C16.29 13.1605 16.75 12.0005 16.75 10.8005C16.75 8.18054 14.62 6.06055 12.01 6.06055C9.40001 6.06055 7.27002 8.19054 7.27002 10.8005C7.27002 12.0105 7.73001 13.1605 8.56001 14.0405C8.84001 14.3405 8.83001 14.8205 8.53001 15.1005C8.23001 15.3805 7.75002 15.3706 7.47002 15.0706C6.38002 13.9106 5.77002 12.3905 5.77002 10.8005C5.77002 7.36054 8.57001 4.56055 12.01 4.56055C15.45 4.56055 18.25 7.36054 18.25 10.8005C18.25 12.3905 17.65 13.9106 16.55 15.0706C16.4 15.2206 16.2 15.3005 16 15.3005Z" />
<path d="M13.4402 22.7496H10.5702C9.43018 22.7496 8.42017 22.1097 7.93017 21.0897C7.44017 20.0697 7.57017 18.8796 8.28017 17.9896L9.72017 16.1996C10.2802 15.4996 11.1102 15.0996 12.0102 15.0996C12.9102 15.0996 13.7402 15.4996 14.3002 16.1996L15.7402 17.9896C16.4502 18.8796 16.5902 20.0697 16.0902 21.0897C15.5802 22.1097 14.5702 22.7496 13.4402 22.7496ZM10.8802 17.1296L9.44017 18.9196C9.09017 19.3596 9.02018 19.9296 9.27018 20.4296C9.51018 20.9396 10.0002 21.2396 10.5602 21.2396H13.4302C13.9902 21.2396 14.4802 20.9396 14.7202 20.4296C14.9602 19.9196 14.9002 19.3596 14.5502 18.9196L13.1102 17.1296C12.5702 16.4496 11.4302 16.4496 10.8802 17.1296Z" />
</svg>

<?xml version="1.0" encoding="UTF-8"?>
<svg width="24" height="24" viewBox="0 0 24 24" xmlns="http://www.w3.org/2000/svg">
 <path d="m12 13.74c-0.78 0-1.52-0.2999-2.09-0.8599-0.73-0.73-1.02-1.78-0.78-2.81 0.25-1.05 1.09-1.89 2.14-2.14 1.02-0.25 2.07 0.04003 2.81 0.78003s1.02 1.78 0.78 2.81c-0.25 1.05-1.09 1.8899-2.14 2.1399-0.24 0.05-0.48 0.08-0.72 0.08zm0-4.3999c-0.12 0-0.25 0.01999-0.37 0.04999-0.5 0.12-0.9099 0.52997-1.0299 1.0299-0.13 0.52 0.0099 1.0301 0.3799 1.3901 0.37 0.37 0.87 0.5 1.4 0.38 0.5-0.12 0.91-0.5301 1.03-1.0301 0.13-0.52-0.01-1.0299-0.38-1.3899-0.28-0.28-0.64-0.43-1.03-0.43z"/>
 <path d="m6.02 17.97c-0.18 0-0.37001-0.07-0.51001-0.2-1.94-1.8-3.05-4.34-3.05-6.98 0-5.26 4.28-9.54 9.54-9.54 5.26 0 9.5399 4.28 9.5399 9.54 0 2.66-1.0699 5.12-3.0099 6.95-0.3 0.28-0.78 0.27-1.06-0.03s-0.27-0.78 0.03-1.06c1.64-1.54 2.5399-3.61 2.5399-5.85 0-4.43-3.6099-8.04-8.0399-8.04-4.43 0-8.04 3.61-8.04 8.04 0 2.26 0.90999 4.34 2.57 5.88 0.3 0.28 0.32001 0.76 0.04001 1.06-0.15 0.15-0.35 0.23-0.55 0.23z"/>
 <path d="m16 15.3c-0.18 0-0.37-0.07-0.51-0.2-0.3-0.28-0.32-0.76-0.03-1.06 0.83-0.88 1.29-2.04 1.29-3.24 0-2.62-2.13-4.74-4.74-4.74-2.61 0-4.74 2.13-4.74 4.74 0 1.21 0.45999 2.36 1.29 3.24 0.28 0.3 0.27 0.78-0.03 1.06s-0.77999 0.2701-1.06-0.0299c-1.09-1.16-1.7-2.6801-1.7-4.2701 0-3.44 2.8-6.24 6.24-6.24 3.44 0 6.24 2.8 6.24 6.24 0 1.59-0.6 3.1101-1.7 4.2701-0.15 0.15-0.35 0.2299-0.55 0.2299z"/>
 <path d="m13.44 22.75h-2.87c-1.14 0-2.15-0.6399-2.64-1.6599s-0.36-2.2101 0.35-3.1001l1.44-1.79c0.56003-0.7 1.39-1.1 2.29-1.1s1.73 0.4 2.29 1.1l1.44 1.79c0.71 0.89 0.85 2.0801 0.35 3.1001-0.51 1.02-1.52 1.6599-2.65 1.6599zm-2.56-5.62-1.44 1.79c-0.35 0.44-0.41999 1.01-0.16999 1.51 0.24 0.51 0.73002 0.81 1.29 0.81h2.87c0.56 0 1.05-0.3 1.29-0.81s0.18-1.07-0.17-1.51l-1.44-1.79c-0.54-0.68-1.68-0.68-2.23 0z"/>
</svg>
